svgs/thin/face-thinking.svg

<svg xmlns="http://www.w3.org/2000/svg" viewBox="0 0 512 512"><!--! Font Awesome Pro 6.4.2 by @fontawesome - https://fontawesome.com License - https://fontawesome.com/license (Commercial License) Copyright 2023 Fonticons, Inc. --><path d="M256 16C123.5 16 16 123.5 16 256c0 36.9 8.3 71.9 23.2 103.1c1.9 4 .2 8.8-3.8 10.7s-8.8 .2-10.7-3.8C8.9 332.7 0 295.4 0 256C0 114.6 114.6 0 256 0S512 114.6 512 256s-114.6 256-256 256c-4.4 0-8-3.6-8-8s3.6-8 8-8c132.5 0 240-107.5 240-240S388.5 16 256 16zM139 130.9l-7.1 4c-3.8 2.2-8.7 .9-10.9-3s-.9-8.7 3-10.9l7.1-4c32.3-18.5 72.7-14.6 100.9 9.6l13.2 11.3c3.4 2.9 3.7 7.9 .9 11.3s-7.9 3.7-11.3 .9l-13.2-11.3c-23.1-19.8-56.2-22.9-82.6-7.8zM176.4 176a16 16 0 1 1 0 32 16 16 0 1 1 0-32zm17.6 88.2l81.4 20.4c30.5 7.6 52 34.7 52.6 66c.6 16.9-9.6 33-26.3 39l-42.8 15.6-23.5 64.7c-9.2 25.3-33.2 42.1-60.1 42.1H128c-35.3 0-64-28.7-64-64V328c0-22.1 17.9-40 40-40s40 17.9 40 40v33.8l130.3-47.4c6.7-2.4 13.7-3 20.3-1.9c-6.4-5.9-14.3-10.2-23.1-12.4l-81.4-20.4c-4.3-1.1-6.9-5.4-5.8-9.7s5.4-6.9 9.7-5.8zm118.1 87c-.1-2.5-.5-5-1.4-7.4c-4.5-12.5-18.3-18.9-30.8-14.4L138.7 380.7c-2.5 .9-5.2 .5-7.3-1s-3.4-3.9-3.4-6.6V328c0-13.3-10.7-24-24-24s-24 10.7-24 24V448c0 26.5 21.5 48 48 48h47.2c20.2 0 38.2-12.6 45.1-31.6l24.8-68.2c.8-2.2 2.6-4 4.8-4.8l46.3-16.8C306 371 312 361.8 312 352h0c0-.3 0-.5 0-.8zM320.4 208a16 16 0 1 1 32 0 16 16 0 1 1 -32 0z"/></svg>

<svg xmlns="http://www.w3.org/2000/svg" viewBox="0 0 512 512"><!--! Font Awesome Pro 6.1.1 by @fontawesome - https://fontawesome.com License - https://fontawesome.com/license (Commercial License) Copyright 2022 Fonticons, Inc. --><path d="M256 16C123.5 16 16 123.5 16 256C16 292.9 24.34 327.9 39.22 359.1C41.12 363.1 39.43 367.9 35.44 369.8C31.45 371.7 26.68 369.1 24.78 366C8.89 332.7 0 295.4 0 256C0 114.6 114.6 0 256 0C397.4 0 512 114.6 512 256C512 397.4 397.4 512 256 512C251.6 512 248 508.4 248 504C248 499.6 251.6 496 256 496C388.5 496 496 388.5 496 256C496 123.5 388.5 16 256 16zM131.1 134.9C128.1 137.1 123.2 135.8 121.1 131.1C118.9 128.1 120.2 123.2 124 121.1L131.1 117C163.4 98.57 203.8 102.4 232 126.6L245.2 137.9C248.6 140.8 248.9 145.9 246.1 149.2C243.2 152.6 238.1 152.9 234.8 150.1L221.6 138.8C198.5 118.1 165.4 115.8 139 130.9L131.1 134.9zM160.4 192C160.4 183.2 167.5 176 176.4 176C185.2 176 192.4 183.2 192.4 192C192.4 200.8 185.2 208 176.4 208C167.5 208 160.4 200.8 160.4 192V192zM275.4 284.6C305.8 292.2 327.3 319.3 327.1 350.6C328.6 367.4 318.4 383.5 301.7 389.6L258.9 405.2L235.3 469.9C226.1 495.2 202.1 512 175.2 512H128C92.65 512 64 483.3 64 448V328C64 305.9 81.91 287.1 104 287.1C126.1 287.1 144 305.9 144 328V361.8L274.3 314.4C281.1 311.1 288 311.4 294.6 312.5C288.2 306.7 280.4 302.3 271.5 300.1L190.1 279.8C185.8 278.7 183.2 274.3 184.2 270.1C185.3 265.8 189.7 263.2 193.9 264.2L275.4 284.6zM310.6 343.8C306 331.3 292.3 324.9 279.8 329.4L138.7 380.7C136.3 381.6 133.5 381.3 131.4 379.8C129.3 378.3 128 375.8 128 373.2V328C128 314.7 117.3 303.1 104 303.1C90.75 303.1 80 314.7 80 328V448C80 474.5 101.5 496 128 496H175.2C195.4 496 213.4 483.4 220.3 464.4L245.1 396.2C245.9 393.1 247.7 392.2 249.9 391.4L296.2 374.6C305.9 371 311.1 361.8 312 352C312 351.7 311.1 351.5 311.1 351.2C311.9 348.8 311.4 346.2 310.6 343.8V343.8zM352.4 208C352.4 216.8 345.2 224 336.4 224C327.5 224 320.4 216.8 320.4 208C320.4 199.2 327.5 192 336.4 192C345.2 192 352.4 199.2 352.4 208z"/></svg>
